X: 6976
T: Chicago, The
R: jig
M: 6/8
K: Dmixolydian
F2D DAG|F2D DAG|F2D DED|C2A, A,AG|
F2D DAG|F2D DAD|BDB cAF|1 AGF GAG:|2 AGF G2A||
|:~B3 cBc|~d3 ABc|B2G GAG|F2D DAD|
BDB cDc|~d3 ABc|~B3 cAF|1 AGF G2A:|2 AGF GAG||

